(G-CODE GENERATED BY FLATCAM v8.994 - www.flatcam.org - Version Date: 2020/11/7)

(Name: Gerber_TopLayer.GTL_iso_combined_cnc)
(Type: G-code from Geometry)
(Units: MM)

(Created on Tuesday, 10 September 2024 at 16:28)

(This preprocessor is the default preprocessor used by FlatCAM.)
(It is made to work with MACH3 compatible motion controllers.)

(TOOL DIAMETER: 0.1 mm)
(Feedrate_XY: 120.0 mm/min)
(Feedrate_Z: 60.0 mm/min)
(Feedrate rapids 1500.0 mm/min)

(Z_Cut: 0.0 mm)
(Z_Move: 2.0 mm)
(Z Start: None mm)
(Z End: 15.0 mm)
(X,Y End: None mm)
(Steps per circle: 64)
(Preprocessor Geometry: default)

(X range:   -0.0833 ...   25.4101  mm)
(Y range:   44.9240 ...   95.1605  mm)

(Spindle Speed: 0.0 RPM)
G21
G90
G94

G01 F120.00

M5
G00 Z15.0000
G00 X0.0000 Y0.0000
T1
M6    
(MSG, Change to Tool Dia = 0.1000)
M0
G00 Z15.0000

M03
G01 F120.00
G00 X2.6502 Y47.5114
G01 F60.00
G01 Z0.0000
G01 F120.00
G01 X2.6241 Y47.4676
G01 X2.5748 Y47.3634
G01 X2.5350 Y47.2525
G01 X2.5061 Y47.1371
G01 X2.4889 Y47.0219
G01 X2.4830 Y46.9030
G01 X2.4888 Y46.7854
G01 X2.5061 Y46.6689
G01 X2.5343 Y46.5558
G01 X2.5743 Y46.4438
G01 X2.6247 Y46.3373
G01 X2.6852 Y46.2363
G01 X2.7554 Y46.1417
G01 X2.8345 Y46.0545
G01 X2.9217 Y45.9754
G01 X3.0163 Y45.9052
G01 X3.1162 Y45.8453
G01 X3.2238 Y45.7944
G01 X3.3347 Y45.7547
G01 X3.4489 Y45.7261
G01 X3.5654 Y45.7088
G01 X3.6830 Y45.7030
G01 X3.8006 Y45.7088
G01 X3.9171 Y45.7261
G01 X4.0313 Y45.7547
G01 X4.1422 Y45.7944
G01 X4.2487 Y45.8447
G01 X4.3497 Y45.9052
G01 X4.4443 Y45.9754
G01 X4.5315 Y46.0545
G01 X4.6106 Y46.1417
G01 X4.6808 Y46.2363
G01 X4.7407 Y46.3363
G01 X4.7925 Y46.4461
G01 X4.8313 Y46.5547
G01 X4.8599 Y46.6689
G01 X4.8772 Y46.7854
G01 X4.8829 Y46.9006
G01 X4.8769 Y47.0231
G01 X4.8599 Y47.1371
G01 X4.8313 Y47.2514
G01 X4.7917 Y47.3622
G01 X4.7424 Y47.4665
G01 X4.6794 Y47.5717
G01 X4.6106 Y47.6643
G01 X4.5315 Y47.7515
G01 X4.4443 Y47.8306
G01 X4.3517 Y47.8994
G01 X4.2465 Y47.9624
G01 X4.1422 Y48.0117
G01 X4.0313 Y48.0513
G01 X3.9171 Y48.0800
G01 X3.8018 Y48.0971
G01 X3.6830 Y48.1030
G01 X3.5678 Y48.0974
G01 X3.4477 Y48.0797
G01 X3.3347 Y48.0513
G01 X3.2249 Y48.0121
G01 X3.1184 Y47.9619
G01 X3.0746 Y47.9358
G01 X0.5169 Y50.4935
G01 X0.5169 Y81.1529
G01 X11.2631 Y91.8991
G01 X19.3135 Y91.8991
G01 X19.3383 Y91.8298
G01 X19.3881 Y91.7244
G01 X19.4486 Y91.6233
G01 X19.5194 Y91.5277
G01 X19.5976 Y91.4414
G01 X19.6857 Y91.3614
G01 X19.7803 Y91.2912
G01 X19.8813 Y91.2307
G01 X19.9901 Y91.1795
G01 X20.1010 Y91.1400
G01 X20.2129 Y91.1121
G01 X20.3269 Y91.0951
G01 X20.4470 Y91.0890
G01 X20.5634 Y91.0947
G01 X20.6811 Y91.1121
G01 X20.7965 Y91.1410
G01 X20.9073 Y91.1808
G01 X21.0116 Y91.2301
G01 X21.0554 Y91.2562
G01 X21.9249 Y90.3867
G01 X21.9249 Y86.5713
G01 X20.3046 Y84.9511
G01 X11.3319 Y84.9511
G01 X11.3001 Y84.9493
G01 X11.2734 Y84.9453
G01 X11.2472 Y84.9388
G01 X11.2171 Y84.9282
G01 X11.1894 Y84.9150
G01 X11.1652 Y84.9005
G01 X11.1435 Y84.8844
G01 X11.1197 Y84.8632
G01 X4.2914 Y78.0348
G01 X4.2476 Y78.0609
G01 X4.1411 Y78.1111
G01 X4.0313 Y78.1503
G01 X3.9183 Y78.1787
G01 X3.8006 Y78.1962
G01 X3.6855 Y78.2019
G01 X3.5642 Y78.1961
G01 X3.4489 Y78.1790
G01 X3.3347 Y78.1503
G01 X3.2238 Y78.1107
G01 X3.1195 Y78.0614
G01 X3.0143 Y77.9984
G01 X2.9217 Y77.9296
G01 X2.8336 Y77.8497
G01 X2.7554 Y77.7633
G01 X2.6852 Y77.6687
G01 X2.6247 Y77.5677
G01 X2.5735 Y77.4589
G01 X2.5347 Y77.3504
G01 X2.5066 Y77.2385
G01 X2.4891 Y77.1221
G01 X2.4830 Y77.0020
G01 X2.4886 Y76.8868
G01 X2.5061 Y76.7679
G01 X2.5347 Y76.6537
G01 X2.5743 Y76.5428
G01 X2.6247 Y76.4363
G01 X2.6852 Y76.3353
G01 X2.7554 Y76.2407
G01 X2.8345 Y76.1535
G01 X2.9217 Y76.0744
G01 X3.0163 Y76.0042
G01 X3.1173 Y75.9437
G01 X3.2238 Y75.8934
G01 X3.3323 Y75.8545
G01 X3.4513 Y75.8246
G01 X3.5654 Y75.8078
G01 X3.6855 Y75.8021
G01 X3.8006 Y75.8078
G01 X3.9171 Y75.8251
G01 X4.0313 Y75.8537
G01 X4.1422 Y75.8934
G01 X4.2487 Y75.9437
G01 X4.3497 Y76.0042
G01 X4.4443 Y76.0744
G01 X4.5306 Y76.1526
G01 X4.6106 Y76.2407
G01 X4.6794 Y76.3333
G01 X4.7424 Y76.4385
G01 X4.7917 Y76.5428
G01 X4.8313 Y76.6537
G01 X4.8599 Y76.7679
G01 X4.8771 Y76.8832
G01 X4.8829 Y77.0045
G01 X4.8772 Y77.1196
G01 X4.8597 Y77.2373
G01 X4.8313 Y77.3504
G01 X4.7921 Y77.4601
G01 X4.7419 Y77.5666
G01 X4.7158 Y77.6104
G01 X11.4563 Y84.3508
G01 X20.4289 Y84.3508
G01 X20.4608 Y84.3526
G01 X20.4875 Y84.3566
G01 X20.5161 Y84.3637
G01 X20.5460 Y84.3747
G01 X20.5704 Y84.3863
G01 X20.5936 Y84.4001
G01 X20.6193 Y84.4189
G01 X20.6412 Y84.4387
G01 X22.4381 Y86.2357
G01 X22.4570 Y86.2566
G01 X22.4745 Y86.2803
G01 X22.4897 Y86.3055
G01 X22.5023 Y86.3321
G01 X22.5122 Y86.3599
G01 X22.5194 Y86.3884
G01 X22.5237 Y86.4176
G01 X22.5251 Y86.4458
G01 X22.5251 Y90.5110
G01 X22.5237 Y90.5404
G01 X22.5191 Y90.5708
G01 X22.5122 Y90.5981
G01 X22.5032 Y90.6236
G01 X22.4897 Y90.6525
G01 X22.4731 Y90.6797
G01 X22.4570 Y90.7014
G01 X22.4381 Y90.7223
G01 X21.4798 Y91.6806
G01 X21.5059 Y91.7244
G01 X21.5552 Y91.8287
G01 X21.5950 Y91.9395
G01 X21.6239 Y92.0549
G01 X21.6411 Y92.1702
G01 X21.6470 Y92.2890
G01 X21.6412 Y92.4066
G01 X21.6239 Y92.5231
G01 X21.5950 Y92.6385
G01 X21.5557 Y92.7482
G01 X21.5041 Y92.8568
G01 X21.4448 Y92.9557
G01 X21.3761 Y93.0483
G01 X21.2972 Y93.1358
G01 X21.2083 Y93.2166
G01 X21.1137 Y93.2868
G01 X21.0127 Y93.3473
G01 X20.9051 Y93.3981
G01 X20.7953 Y93.4373
G01 X20.6787 Y93.4664
G01 X20.5646 Y93.4832
G01 X20.4495 Y93.4889
G01 X20.3318 Y93.4834
G01 X20.2129 Y93.4659
G01 X20.0987 Y93.4373
G01 X19.9878 Y93.3977
G01 X19.8813 Y93.3473
G01 X19.7803 Y93.2868
G01 X19.6839 Y93.2150
G01 X19.5985 Y93.1375
G01 X19.5210 Y93.0521
G01 X19.4506 Y92.9577
G01 X19.3887 Y92.8547
G01 X19.3383 Y92.7482
G01 X19.2983 Y92.6362
G01 X19.2703 Y92.5243
G01 X19.2665 Y92.4993
G01 X11.1388 Y92.4993
G01 X11.1069 Y92.4976
G01 X11.0802 Y92.4935
G01 X11.0540 Y92.4870
G01 X11.0239 Y92.4765
G01 X10.9962 Y92.4633
G01 X10.9721 Y92.4487
G01 X10.9503 Y92.4327
G01 X10.9266 Y92.4114
G01 X0.0046 Y81.4894
G01 X-0.0152 Y81.4676
G01 X-0.0327 Y81.4439
G01 X-0.0479 Y81.4187
G01 X-0.0609 Y81.3909
G01 X-0.0704 Y81.3643
G01 X-0.0776 Y81.3357
G01 X-0.0819 Y81.3066
G01 X-0.0833 Y81.2772
G01 X-0.0833 Y50.3692
G01 X-0.0820 Y50.3410
G01 X-0.0776 Y50.3106
G01 X-0.0711 Y50.2844
G01 X-0.0595 Y50.2521
G01 X-0.0479 Y50.2277
G01 X-0.0327 Y50.2025
G01 X-0.0152 Y50.1788
G01 X0.0037 Y50.1579
G01 X2.6502 Y47.5114
G00 Z2.0000
G00 X2.0821 Y60.3387
G01 F60.00
G01 Z0.0000
G01 F120.00
G01 X2.9700 Y61.2265
G01 X3.0173 Y61.1916
G01 X3.1184 Y61.1311
G01 X3.2238 Y61.0813
G01 X3.3358 Y61.0413
G01 X3.4489 Y61.0131
G01 X3.5654 Y60.9958
G01 X3.6830 Y60.9900
G01 X3.7994 Y60.9957
G01 X3.9171 Y61.0131
G01 X4.0290 Y61.0410
G01 X4.1445 Y61.0823
G01 X4.2487 Y61.1317
G01 X4.3497 Y61.1922
G01 X4.4443 Y61.2624
G01 X4.5315 Y61.3415
G01 X4.6106 Y61.4287
G01 X4.6808 Y61.5233
G01 X4.7413 Y61.6243
G01 X4.7907 Y61.7285
G01 X4.8320 Y61.8440
G01 X4.8599 Y61.9559
G01 X4.8773 Y62.0736
G01 X4.8830 Y62.1900
G01 X4.8772 Y62.3076
G01 X4.8599 Y62.4241
G01 X4.8317 Y62.5372
G01 X4.7917 Y62.6492
G01 X4.7419 Y62.7546
G01 X4.6814 Y62.8557
G01 X4.6465 Y62.9030
G01 X23.1122 Y81.3688
G01 X23.1254 Y81.3836
G01 X23.1342 Y81.3956
G01 X23.1426 Y81.4095
G01 X23.1506 Y81.4262
G01 X23.1571 Y81.4450
G01 X23.1607 Y81.4595
G01 X23.1629 Y81.4742
G01 X23.1641 Y81.4940
G01 X23.1641 Y92.2890
G01 X23.1629 Y92.3088
G01 X23.1607 Y92.3235
G01 X23.1564 Y92.3404
G01 X23.1506 Y92.3568
G01 X23.1443 Y92.3703
G01 X23.1328 Y92.3894
G01 X23.1239 Y92.4013
G01 X23.1122 Y92.4142
G01 X21.3342 Y94.1922
G01 X21.3194 Y94.2054
G01 X21.3074 Y94.2142
G01 X21.2935 Y94.2226
G01 X21.2768 Y94.2306
G01 X21.2580 Y94.2371
G01 X21.2435 Y94.2407
G01 X21.2288 Y94.2429
G01 X21.2090 Y94.2441
G01 X5.4610 Y94.2441
G01 X5.4449 Y94.2433
G01 X5.4265 Y94.2407
G01 X5.4120 Y94.2371
G01 X5.3910 Y94.2296
G01 X5.3775 Y94.2232
G01 X5.3626 Y94.2142
G01 X5.3487 Y94.2039
G01 X5.3367 Y94.1931
G01 X4.3960 Y93.2525
G01 X4.3487 Y93.2874
G01 X4.2498 Y93.3467
G01 X4.1433 Y93.3972
G01 X4.0313 Y93.4373
G01 X3.9183 Y93.4657
G01 X3.8006 Y93.4832
G01 X3.6830 Y93.4890
G01 X3.5654 Y93.4832
G01 X3.4477 Y93.4657
G01 X3.3347 Y93.4373
G01 X3.2215 Y93.3967
G01 X3.1152 Y93.3461
G01 X3.0163 Y93.2868
G01 X2.9237 Y93.2181
G01 X2.8345 Y93.1375
G01 X2.7554 Y93.0503
G01 X2.6852 Y92.9557
G01 X2.6241 Y92.8536
G01 X2.5743 Y92.7482
G01 X2.5354 Y92.6397
G01 X2.5061 Y92.5231
G01 X2.4886 Y92.4042
G01 X2.4830 Y92.2890
G01 X2.4886 Y92.1738
G01 X2.5061 Y92.0549
G01 X2.5354 Y91.9383
G01 X2.5743 Y91.8298
G01 X2.6236 Y91.7255
G01 X2.6852 Y91.6223
G01 X2.7570 Y91.5259
G01 X2.8345 Y91.4405
G01 X2.9199 Y91.3630
G01 X3.0163 Y91.2912
G01 X3.1195 Y91.2296
G01 X3.2238 Y91.1803
G01 X3.3323 Y91.1414
G01 X3.4489 Y91.1121
G01 X3.5678 Y91.0946
G01 X3.6830 Y91.0890
G01 X3.7982 Y91.0946
G01 X3.9171 Y91.1121
G01 X4.0313 Y91.1407
G01 X4.1422 Y91.1803
G01 X4.2508 Y91.2319
G01 X4.3517 Y91.2926
G01 X4.4443 Y91.3614
G01 X4.5298 Y91.4388
G01 X4.6106 Y91.5277
G01 X4.6814 Y91.6233
G01 X4.7413 Y91.7233
G01 X4.7907 Y91.8275
G01 X4.8313 Y91.9407
G01 X4.8599 Y92.0549
G01 X4.8769 Y92.1689
G01 X4.8830 Y92.2902
G01 X4.8772 Y92.4066
G01 X4.8604 Y92.5207
G01 X4.8310 Y92.6385
G01 X4.7917 Y92.7482
G01 X4.7419 Y92.8536
G01 X4.6814 Y92.9547
G01 X4.6465 Y93.0020
G01 X5.5343 Y93.8899
G01 X21.1357 Y93.8899
G01 X22.8099 Y92.2157
G01 X22.8099 Y81.5673
G01 X4.3960 Y63.1535
G01 X4.3487 Y63.1884
G01 X4.2476 Y63.2489
G01 X4.1422 Y63.2987
G01 X4.0302 Y63.3387
G01 X3.9171 Y63.3669
G01 X3.8006 Y63.3842
G01 X3.6830 Y63.3900
G01 X3.5642 Y63.3841
G01 X3.4489 Y63.3669
G01 X3.3347 Y63.3383
G01 X3.2238 Y63.2987
G01 X3.1173 Y63.2483
G01 X3.0163 Y63.1878
G01 X2.9217 Y63.1176
G01 X2.8345 Y63.0385
G01 X2.7554 Y62.9513
G01 X2.6852 Y62.8567
G01 X2.6259 Y62.7578
G01 X2.5735 Y62.6469
G01 X2.5347 Y62.5383
G01 X2.5061 Y62.4241
G01 X2.4888 Y62.3076
G01 X2.4830 Y62.1912
G01 X2.4888 Y62.0724
G01 X2.5056 Y61.9583
G01 X2.5350 Y61.8405
G01 X2.5743 Y61.7308
G01 X2.6241 Y61.6254
G01 X2.6846 Y61.5243
G01 X2.7195 Y61.4770
G01 X1.7789 Y60.5363
G01 X1.7681 Y60.5243
G01 X1.7592 Y60.5124
G01 X1.7488 Y60.4955
G01 X1.7414 Y60.4798
G01 X1.7363 Y60.4657
G01 X1.7309 Y60.4441
G01 X1.7288 Y60.4294
G01 X1.7279 Y60.4120
G01 X1.7279 Y56.3480
G01 X1.7286 Y56.3331
G01 X1.7311 Y56.3147
G01 X1.7349 Y56.2990
G01 X1.7424 Y56.2780
G01 X1.7488 Y56.2645
G01 X1.7578 Y56.2496
G01 X1.7681 Y56.2357
G01 X1.7798 Y56.2228
G01 X3.5767 Y54.4259
G01 X3.5887 Y54.4151
G01 X3.6027 Y54.4047
G01 X3.6176 Y54.3958
G01 X3.6310 Y54.3893
G01 X3.6520 Y54.3818
G01 X3.6665 Y54.3783
G01 X3.6837 Y54.3757
G01 X3.7011 Y54.3749
G01 X21.6617 Y54.3749
G01 X24.2160 Y51.8206
G01 X24.2160 Y50.2474
G01 X23.3390 Y49.3704
G01 X23.3153 Y49.3877
G01 X23.2269 Y49.4406
G01 X23.1348 Y49.4841
G01 X23.0390 Y49.5184
G01 X22.9378 Y49.5438
G01 X22.8384 Y49.5586
G01 X22.7318 Y49.5640
G01 X22.6301 Y49.5589
G01 X22.5282 Y49.5438
G01 X22.4282 Y49.5188
G01 X22.3335 Y49.4850
G01 X22.2359 Y49.4388
G01 X22.1497 Y49.3870
G01 X22.0669 Y49.3257
G01 X21.9905 Y49.2565
G01 X21.9229 Y49.1820
G01 X21.8600 Y49.0973
G01 X21.8070 Y49.0090
G01 X21.7639 Y48.9181
G01 X21.7282 Y48.8188
G01 X21.7032 Y48.7188
G01 X21.6884 Y48.6194
G01 X21.6830 Y48.5140
G01 X21.6884 Y48.4086
G01 X21.7032 Y48.3092
G01 X21.7282 Y48.2092
G01 X21.7629 Y48.1122
G01 X21.8059 Y48.0212
G01 X21.8600 Y47.9307
G01 X21.9229 Y47.8460
G01 X21.9905 Y47.7715
G01 X22.0669 Y47.7023
G01 X22.1497 Y47.6410
G01 X22.2359 Y47.5892
G01 X22.3312 Y47.5439
G01 X22.4282 Y47.5092
G01 X22.5258 Y47.4847
G01 X22.6301 Y47.4691
G01 X22.7330 Y47.4640
G01 X22.8335 Y47.4689
G01 X22.9378 Y47.4842
G01 X23.0401 Y47.5100
G01 X23.1348 Y47.5439
G01 X23.2280 Y47.5880
G01 X23.3184 Y47.6424
G01 X23.3991 Y47.7023
G01 X23.4755 Y47.7715
G01 X23.5462 Y47.8498
G01 X23.6060 Y47.9307
G01 X23.6584 Y48.0180
G01 X23.7040 Y48.1145
G01 X23.7378 Y48.2092
G01 X23.7628 Y48.3092
G01 X23.7781 Y48.4135
G01 X23.7830 Y48.5140
G01 X23.7780 Y48.6157
G01 X23.7623 Y48.7212
G01 X23.7378 Y48.8188
G01 X23.7035 Y48.9147
G01 X23.6584 Y49.0100
G01 X23.6067 Y49.0963
G01 X23.5894 Y49.1200
G01 X24.5191 Y50.0497
G01 X24.5299 Y50.0617
G01 X24.5388 Y50.0736
G01 X24.5492 Y50.0906
G01 X24.5575 Y50.1086
G01 X24.5625 Y50.1226
G01 X24.5664 Y50.1383
G01 X24.5692 Y50.1567
G01 X24.5701 Y50.1740
G01 X24.5701 Y51.8940
G01 X24.5689 Y51.9138
G01 X24.5667 Y51.9285
G01 X24.5628 Y51.9442
G01 X24.5566 Y51.9617
G01 X24.5480 Y51.9796
G01 X24.5402 Y51.9923
G01 X24.5314 Y52.0044
G01 X24.5182 Y52.0192
G01 X21.8603 Y54.6771
G01 X21.8454 Y54.6903
G01 X21.8334 Y54.6992
G01 X21.8196 Y54.7075
G01 X21.8028 Y54.7155
G01 X21.7841 Y54.7220
G01 X21.7696 Y54.7256
G01 X21.7548 Y54.7279
G01 X21.7350 Y54.7290
G01 X3.7744 Y54.7290
G01 X2.0821 Y56.4213
G01 X2.0821 Y60.3387
G00 Z2.0000
G00 X2.6502 Y81.3936
G01 F60.00
G01 Z0.0000
G01 F120.00
G01 X0.9299 Y79.6733
G01 X0.9110 Y79.6524
G01 X0.8935 Y79.6287
G01 X0.8783 Y79.6035
G01 X0.8667 Y79.5791
G01 X0.8551 Y79.5468
G01 X0.8486 Y79.5206
G01 X0.8442 Y79.4902
G01 X0.8429 Y79.4620
G01 X0.8429 Y54.4430
G01 X0.8443 Y54.4136
G01 X0.8486 Y54.3844
G01 X0.8558 Y54.3559
G01 X0.8657 Y54.3281
G01 X0.8783 Y54.3015
G01 X0.8935 Y54.2763
G01 X0.9110 Y54.2526
G01 X0.9299 Y54.2317
G01 X2.6502 Y52.5114
G01 X2.6241 Y52.4676
G01 X2.5748 Y52.3633
G01 X2.5343 Y52.2502
G01 X2.5061 Y52.1371
G01 X2.4891 Y52.0231
G01 X2.4830 Y51.9018
G01 X2.4888 Y51.7854
G01 X2.5056 Y51.6713
G01 X2.5347 Y51.5547
G01 X2.5753 Y51.4415
G01 X2.6247 Y51.3373
G01 X2.6852 Y51.2363
G01 X2.7554 Y51.1417
G01 X2.8362 Y51.0528
G01 X2.9217 Y50.9754
G01 X3.0143 Y50.9066
G01 X3.1173 Y50.8447
G01 X3.2261 Y50.7935
G01 X3.3347 Y50.7547
G01 X3.4465 Y50.7266
G01 X3.5654 Y50.7088
G01 X3.6842 Y50.7030
G01 X3.8006 Y50.7088
G01 X3.9171 Y50.7261
G01 X4.0313 Y50.7547
G01 X4.1399 Y50.7935
G01 X4.2508 Y50.8459
G01 X4.3497 Y50.9052
G01 X4.4452 Y50.9762
G01 X4.5315 Y51.0545
G01 X4.6106 Y51.1417
G01 X4.6808 Y51.2363
G01 X4.7407 Y51.3362
G01 X4.7917 Y51.4438
G01 X4.8310 Y51.5535
G01 X4.8597 Y51.6677
G01 X4.8685 Y51.7259
G01 X21.8107 Y51.7259
G01 X21.8766 Y51.6600
G01 X21.8593 Y51.6363
G01 X21.8064 Y51.5479
G01 X21.7629 Y51.4558
G01 X21.7279 Y51.3576
G01 X21.7032 Y51.2588
G01 X21.6881 Y51.1569
G01 X21.6830 Y51.0540
G01 X21.6882 Y50.9499
G01 X21.7032 Y50.8492
G01 X21.7276 Y50.7516
G01 X21.7639 Y50.6499
G01 X21.8070 Y50.5590
G01 X21.8600 Y50.4707
G01 X21.9213 Y50.3879
G01 X21.9897 Y50.3124
G01 X22.0669 Y50.2423
G01 X22.1476 Y50.1824
G01 X22.2402 Y50.1269
G01 X22.3312 Y50.0839
G01 X22.4282 Y50.0492
G01 X22.5282 Y50.0242
G01 X22.6301 Y50.0091
G01 X22.7330 Y50.0040
G01 X22.8335 Y50.0089
G01 X22.9402 Y50.0247
G01 X23.0378 Y50.0492
G01 X23.1348 Y50.0839
G01 X23.2280 Y50.1280
G01 X23.3163 Y50.1810
G01 X23.4010 Y50.2439
G01 X23.4755 Y50.3115
G01 X23.5447 Y50.3879
G01 X23.6074 Y50.4727
G01 X23.6590 Y50.5590
G01 X23.7031 Y50.6522
G01 X23.7384 Y50.7516
G01 X23.7628 Y50.8492
G01 X23.7779 Y50.9511
G01 X23.7829 Y51.0565
G01 X23.7779 Y51.1569
G01 X23.7628 Y51.2588
G01 X23.7378 Y51.3588
G01 X23.7040 Y51.4535
G01 X23.6590 Y51.5490
G01 X23.6060 Y51.6373
G01 X23.5462 Y51.7182
G01 X23.4755 Y51.7965
G01 X23.3991 Y51.8657
G01 X23.3184 Y51.9256
G01 X23.2280 Y51.9800
G01 X23.1325 Y52.0250
G01 X23.0378 Y52.0588
G01 X22.9378 Y52.0838
G01 X22.8359 Y52.0989
G01 X22.7330 Y52.1040
G01 X22.6301 Y52.0989
G01 X22.5270 Y52.0836
G01 X22.4282 Y52.0588
G01 X22.3301 Y52.0236
G01 X22.2370 Y51.9794
G01 X22.1507 Y51.9277
G01 X22.1271 Y51.9104
G01 X22.0083 Y52.0291
G01 X21.9963 Y52.0399
G01 X21.9834 Y52.0495
G01 X21.9653 Y52.0603
G01 X21.9518 Y52.0666
G01 X21.9354 Y52.0724
G01 X21.9186 Y52.0767
G01 X21.9038 Y52.0789
G01 X21.8840 Y52.0801
G01 X4.8685 Y52.0801
G01 X4.8597 Y52.1383
G01 X4.8317 Y52.2502
G01 X4.7921 Y52.3611
G01 X4.7413 Y52.4687
G01 X4.6801 Y52.5707
G01 X4.6090 Y52.6661
G01 X4.5315 Y52.7515
G01 X4.4461 Y52.8290
G01 X4.3497 Y52.9008
G01 X4.2465 Y52.9624
G01 X4.1422 Y53.0117
G01 X4.0337 Y53.0506
G01 X3.9195 Y53.0794
G01 X3.8006 Y53.0972
G01 X3.6818 Y53.1030
G01 X3.5629 Y53.0969
G01 X3.4489 Y53.0799
G01 X3.3358 Y53.0517
G01 X3.2227 Y53.0112
G01 X3.1184 Y52.9619
G01 X3.0746 Y52.9358
G01 X1.4431 Y54.5673
G01 X1.4431 Y79.3377
G01 X3.0746 Y80.9692
G01 X3.1184 Y80.9431
G01 X3.2249 Y80.8929
G01 X3.3347 Y80.8537
G01 X3.4477 Y80.8253
G01 X3.5654 Y80.8078
G01 X3.6805 Y80.8021
G01 X3.8018 Y80.8079
G01 X3.9171 Y80.8251
G01 X4.0313 Y80.8537
G01 X4.1422 Y80.8933
G01 X4.2465 Y80.9426
G01 X4.3517 Y81.0056
G01 X4.4443 Y81.0744
G01 X4.5315 Y81.1535
G01 X4.6106 Y81.2407
G01 X4.6794 Y81.3333
G01 X4.7424 Y81.4385
G01 X4.7917 Y81.5428
G01 X4.8313 Y81.6537
G01 X4.8599 Y81.7679
G01 X4.8771 Y81.8832
G01 X4.8829 Y82.0045
G01 X4.8772 Y82.1196
G01 X4.8597 Y82.2373
G01 X4.8313 Y82.3503
G01 X4.7921 Y82.4601
G01 X4.7419 Y82.5666
G01 X4.7158 Y82.6104
G01 X9.0943 Y86.9889
G01 X19.2865 Y86.9889
G01 X19.2990 Y86.9395
G01 X19.3388 Y86.8287
G01 X19.3887 Y86.7233
G01 X19.4499 Y86.6213
G01 X19.5194 Y86.5277
G01 X19.5985 Y86.4405
G01 X19.6857 Y86.3614
G01 X19.7793 Y86.2919
G01 X19.8813 Y86.2307
G01 X19.9855 Y86.1813
G01 X20.1010 Y86.1400
G01 X20.2129 Y86.1121
G01 X20.3294 Y86.0948
G01 X20.4470 Y86.0890
G01 X20.5634 Y86.0947
G01 X20.6811 Y86.1121
G01 X20.7977 Y86.1415
G01 X20.9062 Y86.1804
G01 X21.0105 Y86.2296
G01 X21.1137 Y86.2912
G01 X21.2101 Y86.3630
G01 X21.2955 Y86.4405
G01 X21.3730 Y86.5259
G01 X21.4448 Y86.6223
G01 X21.5064 Y86.7255
G01 X21.5557 Y86.8298
G01 X21.5946 Y86.9383
G01 X21.6239 Y87.0549
G01 X21.6414 Y87.1738
G01 X21.6470 Y87.2890
G01 X21.6414 Y87.4042
G01 X21.6239 Y87.5231
G01 X21.5946 Y87.6397
G01 X21.5557 Y87.7482
G01 X21.5064 Y87.8525
G01 X21.4448 Y87.9557
G01 X21.3746 Y88.0503
G01 X21.2938 Y88.1392
G01 X21.2083 Y88.2166
G01 X21.1157 Y88.2854
G01 X21.0127 Y88.3473
G01 X20.9039 Y88.3985
G01 X20.7953 Y88.4373
G01 X20.6835 Y88.4654
G01 X20.5646 Y88.4832
G01 X20.4458 Y88.4890
G01 X20.3294 Y88.4832
G01 X20.2153 Y88.4664
G01 X20.0963 Y88.4366
G01 X19.9878 Y88.3977
G01 X19.8813 Y88.3473
G01 X19.7803 Y88.2868
G01 X19.6867 Y88.2174
G01 X19.5985 Y88.1375
G01 X19.5210 Y88.0521
G01 X19.4486 Y87.9547
G01 X19.3887 Y87.8547
G01 X19.3388 Y87.7494
G01 X19.2990 Y87.6385
G01 X19.2865 Y87.5891
G01 X8.9700 Y87.5891
G01 X8.9406 Y87.5877
G01 X8.9139 Y87.5838
G01 X8.8806 Y87.5754
G01 X8.8552 Y87.5663
G01 X8.8307 Y87.5548
G01 X8.8053 Y87.5399
G01 X8.7796 Y87.5210
G01 X8.7578 Y87.5012
G01 X4.2914 Y83.0348
G01 X4.2476 Y83.0609
G01 X4.1411 Y83.1111
G01 X4.0313 Y83.1503
G01 X3.9183 Y83.1787
G01 X3.8006 Y83.1962
G01 X3.6855 Y83.2019
G01 X3.5642 Y83.1961
G01 X3.4489 Y83.1789
G01 X3.3347 Y83.1503
G01 X3.2238 Y83.1107
G01 X3.1195 Y83.0614
G01 X3.0143 Y82.9984
G01 X2.9217 Y82.9296
G01 X2.8345 Y82.8505
G01 X2.7554 Y82.7633
G01 X2.6866 Y82.6707
G01 X2.6236 Y82.5655
G01 X2.5743 Y82.4612
G01 X2.5347 Y82.3503
G01 X2.5061 Y82.2361
G01 X2.4889 Y82.1208
G01 X2.4830 Y82.0020
G01 X2.4886 Y81.8868
G01 X2.5063 Y81.7667
G01 X2.5347 Y81.6537
G01 X2.5739 Y81.5439
G01 X2.6241 Y81.4374
G01 X2.6502 Y81.3936
G00 Z2.0000
G00 X2.7195 Y88.0021
G01 F60.00
G01 Z0.0000
G01 F120.00
G01 X2.6846 Y87.9547
G01 X2.6253 Y87.8558
G01 X2.5748 Y87.7494
G01 X2.5347 Y87.6374
G01 X2.5063 Y87.5243
G01 X2.4888 Y87.4066
G01 X2.4830 Y87.2890
G01 X2.4888 Y87.1714
G01 X2.5058 Y87.0561
G01 X2.5347 Y86.9407
G01 X2.5743 Y86.8298
G01 X2.6247 Y86.7233
G01 X2.6852 Y86.6223
G01 X2.7554 Y86.5277
G01 X2.8345 Y86.4405
G01 X2.9217 Y86.3614
G01 X3.0153 Y86.2919
G01 X3.1173 Y86.2307
G01 X3.2238 Y86.1804
G01 X3.3347 Y86.1407
G01 X3.4489 Y86.1121
G01 X3.5654 Y86.0948
G01 X3.6830 Y86.0890
G01 X3.8006 Y86.0948
G01 X3.9171 Y86.1121
G01 X4.0313 Y86.1407
G01 X4.1422 Y86.1804
G01 X4.2487 Y86.2307
G01 X4.3497 Y86.2912
G01 X4.4443 Y86.3614
G01 X4.5315 Y86.4405
G01 X4.6106 Y86.5277
G01 X4.6801 Y86.6213
G01 X4.7413 Y86.7233
G01 X4.7907 Y86.8275
G01 X4.8320 Y86.9430
G01 X4.8599 Y87.0549
G01 X4.8772 Y87.1714
G01 X4.8830 Y87.2890
G01 X4.8772 Y87.4066
G01 X4.8599 Y87.5231
G01 X4.8313 Y87.6374
G01 X4.7917 Y87.7482
G01 X4.7424 Y87.8525
G01 X4.6794 Y87.9577
G01 X4.6106 Y88.0503
G01 X4.5306 Y88.1384
G01 X4.4443 Y88.2166
G01 X4.3497 Y88.2868
G01 X4.2487 Y88.3473
G01 X4.1445 Y88.3967
G01 X4.0290 Y88.4380
G01 X3.9171 Y88.4660
G01 X3.7994 Y88.4833
G01 X3.6830 Y88.4890
G01 X3.5654 Y88.4832
G01 X3.4489 Y88.4660
G01 X3.3358 Y88.4377
G01 X3.2238 Y88.3977
G01 X3.1184 Y88.3479
G01 X3.0173 Y88.2874
G01 X2.9700 Y88.2525
G01 X2.0821 Y89.1404
G01 X2.0821 Y93.1321
G01 X3.7563 Y94.8063
G01 X21.3153 Y94.8063
G01 X23.7515 Y92.3701
G01 X23.7515 Y60.6397
G01 X20.3726 Y57.2608
G01 X20.3182 Y57.3152
G01 X20.3072 Y57.3253
G01 X20.2924 Y57.3365
G01 X20.2786 Y57.3450
G01 X20.2608 Y57.3536
G01 X20.2420 Y57.3601
G01 X20.2275 Y57.3637
G01 X20.2128 Y57.3659
G01 X20.1930 Y57.3671
G01 X4.8685 Y57.3671
G01 X4.8597 Y57.4253
G01 X4.8310 Y57.5395
G01 X4.7917 Y57.6492
G01 X4.7407 Y57.7568
G01 X4.6808 Y57.8567
G01 X4.6106 Y57.9513
G01 X4.5315 Y58.0385
G01 X4.4452 Y58.1168
G01 X4.3497 Y58.1878
G01 X4.2508 Y58.2471
G01 X4.1399 Y58.2995
G01 X4.0313 Y58.3383
G01 X3.9171 Y58.3670
G01 X3.8006 Y58.3842
G01 X3.6830 Y58.3900
G01 X3.5654 Y58.3842
G01 X3.4489 Y58.3670
G01 X3.3347 Y58.3383
G01 X3.2238 Y58.2987
G01 X3.1173 Y58.2483
G01 X3.0163 Y58.1878
G01 X2.9217 Y58.1176
G01 X2.8345 Y58.0385
G01 X2.7554 Y57.9513
G01 X2.6852 Y57.8567
G01 X2.6247 Y57.7557
G01 X2.5743 Y57.6492
G01 X2.5347 Y57.5384
G01 X2.5061 Y57.4241
G01 X2.4888 Y57.3076
G01 X2.4830 Y57.1900
G01 X2.4888 Y57.0724
G01 X2.5061 Y56.9559
G01 X2.5347 Y56.8417
G01 X2.5743 Y56.7308
G01 X2.6247 Y56.6243
G01 X2.6852 Y56.5233
G01 X2.7554 Y56.4287
G01 X2.8345 Y56.3415
G01 X2.9217 Y56.2624
G01 X3.0163 Y56.1922
G01 X3.1173 Y56.1317
G01 X3.2238 Y56.0814
G01 X3.3347 Y56.0417
G01 X3.4489 Y56.0131
G01 X3.5654 Y55.9958
G01 X3.6830 Y55.9900
G01 X3.8006 Y55.9958
G01 X3.9171 Y56.0131
G01 X4.0313 Y56.0417
G01 X4.1399 Y56.0805
G01 X4.2508 Y56.1329
G01 X4.3497 Y56.1922
G01 X4.4452 Y56.2632
G01 X4.5315 Y56.3415
G01 X4.6106 Y56.4287
G01 X4.6808 Y56.5233
G01 X4.7407 Y56.6233
G01 X4.7917 Y56.7308
G01 X4.8310 Y56.8405
G01 X4.8597 Y56.9547
G01 X4.8685 Y57.0129
G01 X20.1197 Y57.0129
G01 X25.0559 Y52.0767
G01 X25.0559 Y48.5473
G01 X23.5326 Y47.0240
G01 X21.7318 Y47.0240
G01 X21.7232 Y47.0230
G01 X21.7150 Y47.0206
G01 X21.7073 Y47.0169
G01 X21.7003 Y47.0119
G01 X21.6943 Y47.0057
G01 X21.6895 Y46.9986
G01 X21.6859 Y46.9908
G01 X21.6837 Y46.9825
G01 X21.6830 Y46.9740
G01 X21.6830 Y44.9740
G01 X21.6840 Y44.9642
G01 X21.6868 Y44.9549
G01 X21.6914 Y44.9462
G01 X21.6976 Y44.9386
G01 X21.7052 Y44.9324
G01 X21.7139 Y44.9278
G01 X21.7232 Y44.9250
G01 X21.7330 Y44.9240
G01 X23.7330 Y44.9240
G01 X23.7379 Y44.9242
G01 X23.7440 Y44.9252
G01 X23.7498 Y44.9269
G01 X23.7555 Y44.9293
G01 X23.7618 Y44.9331
G01 X23.7666 Y44.9370
G01 X23.7709 Y44.9413
G01 X23.7752 Y44.9473
G01 X23.7787 Y44.9537
G01 X23.7808 Y44.9595
G01 X23.7823 Y44.9655
G01 X23.7830 Y44.9728
G01 X23.7830 Y46.7736
G01 X25.3591 Y48.3497
G01 X25.3699 Y48.3617
G01 X25.3788 Y48.3736
G01 X25.3892 Y48.3905
G01 X25.3975 Y48.4085
G01 X25.4024 Y48.4226
G01 X25.4064 Y48.4383
G01 X25.4092 Y48.4566
G01 X25.4101 Y48.4740
G01 X25.4101 Y52.1500
G01 X25.4089 Y52.1698
G01 X25.4067 Y52.1846
G01 X25.4031 Y52.1990
G01 X25.3966 Y52.2178
G01 X25.3879 Y52.2356
G01 X25.3802 Y52.2484
G01 X25.3714 Y52.2604
G01 X25.3582 Y52.2752
G01 X20.6230 Y57.0104
G01 X24.0538 Y60.4412
G01 X24.0655 Y60.4541
G01 X24.0744 Y60.4660
G01 X24.0859 Y60.4851
G01 X24.0922 Y60.4986
G01 X24.0980 Y60.5150
G01 X24.1023 Y60.5319
G01 X24.1048 Y60.5490
G01 X24.1057 Y60.5664
G01 X24.1057 Y92.4434
G01 X24.1048 Y92.4608
G01 X24.1017 Y92.4803
G01 X24.0980 Y92.4948
G01 X24.0931 Y92.5089
G01 X24.0853 Y92.5258
G01 X24.0744 Y92.5438
G01 X24.0655 Y92.5557
G01 X24.0538 Y92.5686
G01 X21.5138 Y95.1086
G01 X21.5009 Y95.1203
G01 X21.4890 Y95.1292
G01 X21.4699 Y95.1407
G01 X21.4564 Y95.1470
G01 X21.4400 Y95.1528
G01 X21.4232 Y95.1571
G01 X21.4072 Y95.1595
G01 X21.3886 Y95.1605
G01 X3.6830 Y95.1605
G01 X3.6656 Y95.1596
G01 X3.6473 Y95.1568
G01 X3.6316 Y95.1528
G01 X3.6175 Y95.1479
G01 X3.5995 Y95.1396
G01 X3.5846 Y95.1306
G01 X3.5726 Y95.1218
G01 X3.5578 Y95.1086
G01 X1.7798 Y93.3306
G01 X1.7681 Y93.3177
G01 X1.7592 Y93.3058
G01 X1.7477 Y93.2867
G01 X1.7414 Y93.2732
G01 X1.7356 Y93.2568
G01 X1.7313 Y93.2399
G01 X1.7289 Y93.2240
G01 X1.7279 Y93.2054
G01 X1.7279 Y89.0670
G01 X1.7288 Y89.0497
G01 X1.7313 Y89.0325
G01 X1.7363 Y89.0133
G01 X1.7414 Y88.9993
G01 X1.7488 Y88.9835
G01 X1.7592 Y88.9666
G01 X1.7681 Y88.9547
G01 X1.7789 Y88.9427
G01 X2.7195 Y88.0021
G00 Z2.0000
M05
G00 Z2.0000
G00 Z15.00


